icons/1_Primary/WeVPN.svg

<svg width="1024" height="1024" fill="none" xmlns="http://www.w3.org/2000/svg"><g clip-path="url(#a)"><path d="M512 1024c282.77 0 512-229.23 512-512S794.77 0 512 0 0 229.23 0 512s229.23 512 512 512Z" fill="#FF837D"/><path d="M492.31 522.07h-61.73a4.407 4.407 0 0 0-4.333 3.253 4.416 4.416 0 0 0-.087 1.927l.26 1.78a34.34 34.34 0 0 0 2 7 24.711 24.711 0 0 0 6.89 9.26c3.06 2.72 7.4 4 12.93 4 5.53 0 9.78-1.36 12.93-4a26.345 26.345 0 0 0 5.78-7 4.464 4.464 0 0 1 3.85-2.29h17.26a4.541 4.541 0 0 1 2.062.514A4.526 4.526 0 0 1 492.31 542a34.153 34.153 0 0 1-2.81 6.2 46.78 46.78 0 0 1-6.46 9.09 37.692 37.692 0 0 1-7.57 6.37 58.776 58.776 0 0 1-7.82 4.16 54.138 54.138 0 0 1-43.54-2 51.132 51.132 0 0 1-8.76-6.11 36.68 36.68 0 0 1-7.65-9.34 52.035 52.035 0 0 1-5.36-13.5 83.475 83.475 0 0 1 0-36.69 54 54 0 0 1 5.36-13.59 37.645 37.645 0 0 1 7.65-9.51 47.427 47.427 0 0 1 8.76-6.2c6.89-3.74 14.8-5.69 23.72-6h.51a58.695 58.695 0 0 1 20.49 4.59 45.128 45.128 0 0 1 8.16 4.76 40.56 40.56 0 0 1 7.65 7.22 44.529 44.529 0 0 1 6.21 10.28 52.318 52.318 0 0 1 3.91 13.76c.25 2 .51 4.08.68 6.2.17 2.12.34 4.42.34 6.88.11-.16.62 3.5-3.47 3.5Zm-29.42-16.73a4.44 4.44 0 0 0 4.08-6.28.073.073 0 0 0-.003-.036.081.081 0 0 0-.019-.031.073.073 0 0 0-.031-.019.077.077 0 0 0-.037-.004 20.356 20.356 0 0 0-10.37-10 21.581 21.581 0 0 0-8.42-1.53 21.29 21.29 0 0 0-8.42 1.53 18.561 18.561 0 0 0-6.21 4.16 22.015 22.015 0 0 0-4.25 5.86v.09a4.483 4.483 0 0 0 4.08 6.37h29.59l.01-.11ZM388 422a24.517 24.517 0 0 0-24.58 24.54v71.09a83.65 83.65 0 0 1-.51 9.09 23.064 23.064 0 0 1-2.55 8.41 16.853 16.853 0 0 1-6.12 6.37c-2.72 1.7-6.63 2.55-11.56 2.55-4.93 0-8.84-.85-11.56-2.55a16.868 16.868 0 0 1-6.12-6.37 23.102 23.102 0 0 1-2.55-8.41 82.652 82.652 0 0 1-.51-9.09v-73.28a24.517 24.517 0 0 0-24.58 24.54v48.66a83.398 83.398 0 0 1-.51 9.09 23.064 23.064 0 0 1-2.55 8.41 16.853 16.853 0 0 1-6.12 6.37c-2.72 1.7-6.63 2.55-11.56 2.55-4.93 0-8.84-.85-11.56-2.55a16.868 16.868 0 0 1-6.12-6.37 23.102 23.102 0 0 1-2.55-8.41 82.652 82.652 0 0 1-.51-9.09v-50.86a24.571 24.571 0 0 0-24.58 24.54v26.33a73.808 73.808 0 0 0 2 18.34 61.422 61.422 0 0 0 5.1 13.59 38.393 38.393 0 0 0 7.23 9.51 45.045 45.045 0 0 0 8.33 6.2 47.831 47.831 0 0 0 22.53 6 48.58 48.58 0 0 0 22.79-6 41.896 41.896 0 0 0 8.25-6.2c.68-.68 1.36-1.36 2-2.12.68.76 1.36 1.44 2 2.12a45.045 45.045 0 0 0 8.33 6.2 47.834 47.834 0 0 0 22.53 6 48.58 48.58 0 0 0 22.79-6 41.896 41.896 0 0 0 8.25-6.2 38.37 38.37 0 0 0 7.23-9.51 53.971 53.971 0 0 0 5.1-13.59 78.05 78.05 0 0 0 1.87-18.34L388 422Zm182.29 143a4.857 4.857 0 0 1-4.59 3.31h-25.85a4.94 4.94 0 0 1-4.59-3.31l-30-92a4.772 4.772 0 0 1 4.59-6.28h14.54a4.926 4.926 0 0 1 4.59 3.31l19.22 58.69c.31.963.918 1.803 1.736 2.398a4.776 4.776 0 0 0 5.629 0 4.773 4.773 0 0 0 1.735-2.398L568.33 495l18.54-56.73a23.544 23.544 0 0 1 29.68-15L570.29 565Zm118.54-79a37.619 37.619 0 0 0-7.65-9.51 47.313 47.313 0 0 0-8.76-6.2 52.698 52.698 0 0 0-23.64-6c-8.42 0-15.56 1.27-21.43 3.74a37.583 37.583 0 0 0-14.54 10.62 43.413 43.413 0 0 0-8.33 16.82 90.385 90.385 0 0 0-2.64 22.51V596a5.912 5.912 0 0 0 6 5.94h11.9a5.914 5.914 0 0 0 6-5.94v-39.29a27.988 27.988 0 0 0 4.25 4.67 35.847 35.847 0 0 0 10.2 6.37 38.695 38.695 0 0 0 11.57 2.55h.94a45.071 45.071 0 0 0 21.6-5.61 44.465 44.465 0 0 0 8.16-6.11 39.03 39.03 0 0 0 7.06-9.34 55.945 55.945 0 0 0 5-13.42 77.327 77.327 0 0 0 1.87-18.26 69.044 69.044 0 0 0-2.13-18.26 53.202 53.202 0 0 0-5.43-13.3Zm-17.94 41.36a28.984 28.984 0 0 1-3.23 9.68 20.67 20.67 0 0 1-6.89 7.47c-3 2-7 3-11.91 3s-8.93-1-11.9-3a22.755 22.755 0 0 1-7.06-7.51 27.258 27.258 0 0 1-3.32-9.68 66.938 66.938 0 0 1-.77-9.6c.016-3.577.243-7.15.68-10.7a28.903 28.903 0 0 1 3-9.6 16.786 16.786 0 0 1 6.89-6.88c3.06-1.7 7.23-2.63 12.41-2.63 4.93 0 8.93 1 11.91 3a20.612 20.612 0 0 1 6.89 7.47 31.749 31.749 0 0 1 3.23 9.68c.487 3.177.744 6.386.77 9.6a56.314 56.314 0 0 1-.7 9.67v.03Zm118.79-32.19a47.755 47.755 0 0 0-7.91-15.17 37.313 37.313 0 0 0-10.46-9.17 49.01 49.01 0 0 0-10.63-4.67 39.367 39.367 0 0 0-8.76-1.7c-2.47-.17-3.91-.17-4.34-.17-.43 0-2 .08-4.42.17a39.004 39.004 0 0 0-8.59 1.7 53.57 53.57 0 0 0-10.57 4.69 37.328 37.328 0 0 0-10.51 9.15 48.791 48.791 0 0 0-7.91 15.12c-2 6.11-3.15 13.59-3.15 22.51V563a5.354 5.354 0 0 0 .403 2.053 5.321 5.321 0 0 0 4.957 3.297h13.69a5.333 5.333 0 0 0 4.958-3.297 5.335 5.335 0 0 0 .402-2.053v-45.27c.007-3.016.264-6.027.77-9a25.377 25.377 0 0 1 3-8.41 17.57 17.57 0 0 1 6.21-6.28c2.64-1.7 6.21-2.46 10.63-2.46 4.42 0 8 .85 10.63 2.46a18.26 18.26 0 0 1 6.21 6.28 25.332 25.332 0 0 1 3 8.41c.503 2.974.761 5.984.77 9V563a5.354 5.354 0 0 0 .403 2.053 5.321 5.321 0 0 0 4.957 3.297h14a5.333 5.333 0 0 0 4.958-3.297 5.335 5.335 0 0 0 .402-2.053v-45.27c-.03-9-1.06-16.47-3.1-22.59v.03Z" fill="#fff"/></g><defs><clipPath id="a"><path fill="#fff" d="M0 0h1024v1024H0z"/></clipPath></defs></svg>

<svg width="1024" height="1024" viewBox="0 0 1024 1024" fill="none" xmlns="http://www.w3.org/2000/svg">
<g clip-path="url(#clip0_2_3921)">
<path d="M512 1024C794.77 1024 1024 794.77 1024 512C1024 229.23 794.77 0 512 0C229.23 0 0 229.23 0 512C0 794.77 229.23 1024 512 1024Z" fill="#FF837D"/>
<path d="M492.31 522.07H430.58C429.93 522.059 429.284 522.191 428.691 522.459C428.097 522.726 427.57 523.122 427.148 523.617C426.725 524.112 426.418 524.695 426.247 525.323C426.076 525.951 426.047 526.609 426.16 527.25L426.42 529.03C426.837 531.428 427.507 533.774 428.42 536.03C429.954 539.618 432.315 542.791 435.31 545.29C438.37 548.01 442.71 549.29 448.24 549.29C453.77 549.29 458.02 547.93 461.17 545.29C463.487 543.309 465.443 540.94 466.95 538.29C467.333 537.603 467.891 537.029 468.567 536.627C469.243 536.224 470.014 536.008 470.8 536H488.06C488.779 536.006 489.485 536.182 490.122 536.514C490.759 536.846 491.307 537.325 491.722 537.912C492.137 538.498 492.407 539.174 492.509 539.885C492.612 540.596 492.544 541.321 492.31 542C491.582 544.155 490.641 546.232 489.5 548.2C487.717 551.477 485.548 554.528 483.04 557.29C480.808 559.737 478.262 561.878 475.47 563.66C472.972 565.241 470.358 566.632 467.65 567.82C460.651 570.522 453.166 571.739 445.67 571.395C438.175 571.051 430.833 569.152 424.11 565.82C420.985 564.095 418.049 562.047 415.35 559.71C412.302 557.041 409.717 553.885 407.7 550.37C405.291 546.143 403.487 541.599 402.34 536.87C399.619 524.791 399.619 512.259 402.34 500.18C403.503 495.428 405.306 490.856 407.7 486.59C409.716 483.025 412.3 479.812 415.35 477.08C418.026 474.688 420.965 472.609 424.11 470.88C431 467.14 438.91 465.19 447.83 464.88H448.34C455.391 465.166 462.332 466.721 468.83 469.47C471.709 470.767 474.444 472.362 476.99 474.23C479.843 476.295 482.415 478.722 484.64 481.45C487.165 484.581 489.254 488.039 490.85 491.73C492.777 496.116 494.093 500.746 494.76 505.49C495.01 507.49 495.27 509.57 495.44 511.69C495.61 513.81 495.78 516.11 495.78 518.57C495.89 518.41 496.4 522.07 492.31 522.07ZM462.89 505.34C463.637 505.347 464.373 505.165 465.031 504.812C465.688 504.458 466.246 503.945 466.653 503.319C467.06 502.693 467.302 501.975 467.357 501.23C467.413 500.486 467.28 499.739 466.97 499.06C466.972 499.048 466.971 499.035 466.967 499.024C466.963 499.012 466.956 499.001 466.948 498.993C466.939 498.984 466.928 498.977 466.917 498.974C466.905 498.97 466.893 498.968 466.88 498.97C464.758 494.484 461.07 490.928 456.51 488.97C453.834 487.903 450.971 487.383 448.09 487.44C445.209 487.375 442.345 487.895 439.67 488.97C437.34 489.921 435.227 491.336 433.46 493.13C431.73 494.835 430.294 496.815 429.21 498.99V499.08C428.892 499.764 428.752 500.518 428.802 501.27C428.853 502.023 429.093 502.751 429.5 503.386C429.907 504.022 430.467 504.544 431.13 504.905C431.793 505.266 432.536 505.453 433.29 505.45H462.88L462.89 505.34ZM388 422C384.774 421.992 381.577 422.621 378.594 423.851C375.611 425.081 372.9 426.888 370.616 429.168C368.333 431.447 366.522 434.156 365.287 437.137C364.052 440.118 363.418 443.313 363.42 446.54V517.63C363.415 520.667 363.245 523.702 362.91 526.72C362.607 529.661 361.741 532.516 360.36 535.13C358.923 537.76 356.81 539.958 354.24 541.5C351.52 543.2 347.61 544.05 342.68 544.05C337.75 544.05 333.84 543.2 331.12 541.5C328.551 539.958 326.438 537.76 325 535.13C323.62 532.516 322.754 529.661 322.45 526.72C322.113 523.702 321.943 520.667 321.94 517.63V444.35C318.714 444.342 315.517 444.971 312.534 446.201C309.551 447.431 306.84 449.238 304.556 451.518C302.273 453.797 300.462 456.506 299.227 459.487C297.992 462.468 297.358 465.663 297.36 468.89V517.55C297.356 520.587 297.185 523.622 296.85 526.64C296.547 529.581 295.681 532.436 294.3 535.05C292.863 537.68 290.75 539.878 288.18 541.42C285.46 543.12 281.55 543.97 276.62 543.97C271.69 543.97 267.78 543.12 265.06 541.42C262.491 539.878 260.378 537.68 258.94 535.05C257.56 532.436 256.694 529.581 256.39 526.64C256.053 523.622 255.883 520.587 255.88 517.55V466.69C249.368 466.687 243.12 469.271 238.511 473.872C233.902 478.474 231.308 484.717 231.3 491.23V517.56C231.197 523.733 231.869 529.895 233.3 535.9C234.457 540.616 236.169 545.178 238.4 549.49C240.299 553.018 242.739 556.227 245.63 559C248.159 561.381 250.954 563.462 253.96 565.2C260.861 569.028 268.6 571.089 276.49 571.2C284.464 571.101 292.291 569.04 299.28 565.2C302.275 563.481 305.046 561.399 307.53 559C308.21 558.32 308.89 557.64 309.53 556.88C310.21 557.64 310.89 558.32 311.53 559C314.059 561.381 316.854 563.462 319.86 565.2C326.761 569.028 334.501 571.089 342.39 571.2C350.364 571.101 358.191 569.04 365.18 565.2C368.175 563.481 370.946 561.399 373.43 559C376.322 556.227 378.761 553.018 380.66 549.49C382.964 545.21 384.68 540.639 385.76 535.9C387.106 529.882 387.733 523.726 387.63 517.56L388 422ZM570.29 565C569.967 565.962 569.35 566.798 568.527 567.392C567.704 567.986 566.715 568.307 565.7 568.31H539.85C538.838 568.295 537.855 567.969 537.034 567.377C536.214 566.785 535.594 565.956 535.26 565L505.26 473C505.019 472.278 504.955 471.508 505.072 470.756C505.189 470.003 505.485 469.29 505.934 468.675C506.383 468.06 506.973 467.562 507.655 467.222C508.336 466.882 509.089 466.71 509.85 466.72H524.39C525.403 466.734 526.386 467.059 527.208 467.651C528.029 468.243 528.648 469.074 528.98 470.03L548.2 528.72C548.51 529.683 549.118 530.523 549.936 531.118C550.753 531.714 551.739 532.035 552.75 532.035C553.762 532.035 554.748 531.714 555.565 531.118C556.383 530.523 556.99 529.683 557.3 528.72L568.33 495L586.87 438.27C588.823 432.349 593.044 427.445 598.609 424.632C604.173 421.82 610.625 421.33 616.55 423.27L570.29 565ZM688.83 486C686.815 482.435 684.231 479.223 681.18 476.49C678.505 474.098 675.566 472.018 672.42 470.29C665.118 466.469 657.021 464.414 648.78 464.29C640.36 464.29 633.22 465.56 627.35 468.03C621.715 470.339 616.725 473.984 612.81 478.65C608.84 483.582 605.997 489.323 604.48 495.47C602.659 502.833 601.772 510.396 601.84 517.98V596C601.836 596.786 601.989 597.565 602.29 598.292C602.591 599.018 603.034 599.678 603.592 600.231C604.151 600.784 604.815 601.22 605.544 601.514C606.274 601.807 607.054 601.952 607.84 601.94H619.74C620.527 601.952 621.307 601.807 622.037 601.514C622.766 601.22 623.43 600.784 623.988 600.231C624.547 599.678 624.99 599.018 625.291 598.292C625.592 597.565 625.745 596.786 625.74 596V556.71C626.976 558.422 628.402 559.989 629.99 561.38C633.007 564.063 636.456 566.216 640.19 567.75C643.893 569.189 647.796 570.049 651.76 570.3H652.7C660.257 570.27 667.685 568.341 674.3 564.69C677.245 562.973 679.983 560.923 682.46 558.58C685.27 555.839 687.65 552.69 689.52 549.24C691.755 544.999 693.435 540.489 694.52 535.82C695.866 529.829 696.494 523.699 696.39 517.56C696.497 511.406 695.781 505.265 694.26 499.3C693.06 494.642 691.233 490.168 688.83 486ZM670.89 527.36C670.394 530.752 669.301 534.03 667.66 537.04C666.021 540.064 663.653 542.632 660.77 544.51C657.77 546.51 653.77 547.51 648.86 547.51C643.95 547.51 639.93 546.51 636.96 544.51C634.064 542.58 631.648 540.011 629.9 537C628.192 534.012 627.066 530.728 626.58 527.32C626.093 524.143 625.836 520.934 625.81 517.72C625.826 514.143 626.053 510.57 626.49 507.02C626.921 503.669 627.937 500.42 629.49 497.42C631.057 494.496 633.454 492.102 636.38 490.54C639.44 488.84 643.61 487.91 648.79 487.91C653.72 487.91 657.72 488.91 660.7 490.91C663.584 492.786 665.953 495.354 667.59 498.38C669.182 501.412 670.272 504.68 670.82 508.06C671.307 511.237 671.564 514.446 671.59 517.66C671.635 520.897 671.401 524.133 670.89 527.33V527.36ZM789.68 495.17C787.978 489.679 785.299 484.54 781.77 480C778.889 476.315 775.341 473.204 771.31 470.83C767.965 468.858 764.396 467.29 760.68 466.16C757.834 465.263 754.895 464.693 751.92 464.46C749.45 464.29 748.01 464.29 747.58 464.29C747.15 464.29 745.58 464.37 743.16 464.46C740.242 464.702 737.361 465.273 734.57 466.16C730.888 467.337 727.344 468.91 724 470.85C719.954 473.213 716.388 476.317 713.49 480C709.986 484.536 707.308 489.654 705.58 495.12C703.58 501.23 702.43 508.71 702.43 517.63V563C702.428 563.704 702.565 564.402 702.833 565.053C703.102 565.704 703.497 566.295 703.995 566.793C704.493 567.29 705.085 567.684 705.737 567.951C706.388 568.218 707.086 568.354 707.79 568.35H721.48C722.185 568.354 722.883 568.218 723.534 567.951C724.185 567.684 724.777 567.29 725.276 566.793C725.774 566.295 726.169 565.704 726.438 565.053C726.706 564.402 726.843 563.704 726.84 563V517.73C726.847 514.714 727.104 511.703 727.61 508.73C728.105 505.771 729.121 502.924 730.61 500.32C732.112 497.732 734.249 495.57 736.82 494.04C739.46 492.34 743.03 491.58 747.45 491.58C751.87 491.58 755.45 492.43 758.08 494.04C760.633 495.594 762.765 497.75 764.29 500.32C765.78 502.924 766.796 505.771 767.29 508.73C767.793 511.704 768.051 514.714 768.06 517.73V563C768.058 563.704 768.195 564.402 768.463 565.053C768.732 565.704 769.127 566.295 769.625 566.793C770.123 567.29 770.715 567.684 771.367 567.951C772.018 568.218 772.716 568.354 773.42 568.35H787.42C788.125 568.354 788.823 568.218 789.474 567.951C790.125 567.684 790.717 567.29 791.216 566.793C791.714 566.295 792.109 565.704 792.378 565.053C792.646 564.402 792.783 563.704 792.78 563V517.73C792.75 508.73 791.72 501.26 789.68 495.14V495.17Z" fill="white"/>
</g>
<defs>
<clipPath id="clip0_2_3921">
<rect width="1024" height="1024" fill="white"/>
</clipPath>
</defs>
</svg>
